frontend/src/app/components/UpdateList/img/news-link-chevron.svg

<?xml version="1.0" encoding="UTF-8"?>
<svg width="12px" height="21px" viewBox="0 0 12 21" version="1.1" xmlns="http://www.w3.org/2000/svg" xmlns:xlink="http://www.w3.org/1999/xlink">
    <!-- Generator: Sketch 46.2 (44496) - http://www.bohemiancoding.com/sketch -->
    <title>icon_rightarrow</title>
    <desc>Created with Sketch.</desc>
    <defs></defs>
    <g id="Homepage_20170927" stroke="none" stroke-width="1" fill="none" fill-rule="evenodd">
        <g id="Addon-installed" transform="translate(-1048.000000, -557.000000)" fill="#FFFFFF">
            <g id="part2" transform="translate(100.000000, 438.000000)">
                <g id="Group-17" transform="translate(0.000000, 66.000000)">
                    <g id="arrow" transform="translate(948.000000, 53.000000)">
                        <g id="icon_rightarrow">
                            <path d="M1.5,21 C1.116,21 0.732,20.853 0.4395,20.5605 C-0.147,19.974 -0.147,19.026 0.4395,18.4395 L8.379,10.5 L0.4395,2.5605 C-0.147,1.974 -0.147,1.026 0.4395,0.4395 C1.026,-0.147 1.974,-0.147 2.5605,0.4395 L11.5605,9.4395 C12.147,10.026 12.147,10.974 11.5605,11.5605 L2.5605,20.5605 C2.268,20.853 1.884,21 1.5,21" id="Fill-1"></path>
                        </g>
                    </g>
                </g>
            </g>
        </g>
    </g>
</svg>

<svg width="12" height="21" viewBox="0 0 12 21" xmlns="http://www.w3.org/2000/svg"><title>icon_rightarrow</title><path d="M1.5 21a1.498 1.498 0 0 1-1.06-2.56l7.939-7.94-7.94-7.94a1.498 1.498 0 0 1 0-2.12 1.498 1.498 0 0 1 2.122 0l9 9a1.498 1.498 0 0 1 0 2.12l-9 9c-.293.293-.677.44-1.061.44" fill="#FFF" fill-rule="evenodd"/></svg>
